file/shinsegae.svg

<svg clip-rule="evenodd" fill-rule="evenodd" stroke-linejoin="round" stroke-miterlimit="1.41421" viewBox="0 0 560 400" xmlns="http://www.w3.org/2000/svg"><g fill-rule="nonzero" transform="matrix(2.15191 0 0 2.15191 50.2922 155.001)"><g fill="#e60000"><path d="m23.08.094c.528.708 1.621 2.169 1.649 2.192.084.14.16.278.266.399.638 1.305 1.616 2.475 2.042 3.929l.263.827s.066.275.107.597c.236.928.011 1.839-.082 2.751-.305 1.623-1.249 3.122-2.094 4.528-.781 1.066-2.502 3.121-2.502 3.121-1.014-1.211-2.107-2.383-3.162-3.547-.594-1.092-1.202-2.177-1.736-3.316-.385-1.302-.722-2.59-.675-3.88-.016-.015.042-.554.066-.777.125-.457.21-.96.457-1.349.068-.208.338-.654.5-.84 0 0 .493-.701.636-.873 1.19-1.486 2.755-2.542 4.126-3.841.069-.054.1.05.139.079z"/><path d="m7.278 7.649c.369.157.765.211 1.138.349 1.037.104 2.044.386 3.036.665.616.205 1.834.83 1.834.83 1.582.868 2.654 2.206 3.768 3.456.942 1.335 1.725 2.795 2.085 4.52.086.515.254 1.06.293 1.573-1.714.504-3.459.775-5.161.833-1.367-.214-2.664-.715-3.939-1.379-1.25-.879-2.205-1.935-3.043-3.097-1.116-1.744-1.686-3.956-1.937-6.07-.04-.292-.06-.558-.06-.558s-.099-.876-.154-1.315c.002-.229.021-.349.021-.349s.342.075.599.115c.39.122 1.336.397 1.52.427z"/><path d="m35.713 9.089c.057.011 1.761.277 2.746.565.172.03.264.081.419.107.871.296 1.739.589 2.606.905-.134 1.181-.348 2.346-1.069 3.373-.025.033-.052.078-.093.134-.602.979-1.539 1.842-2.481 2.486-.899.586-1.784 1.207-2.798 1.623-2.071.994-4.534 1.737-6.872 1.359-.879-.15-1.802-.183-2.676-.376 0 0 .394-1.563.571-2.345.111-.498.525-1.437.525-1.437.665-1.039.878-2.204 1.752-3.176 1.184-1.217 2.393-2.389 3.974-3 1.105-.376 2.314-.416 3.396-.218z"/><path d="m12.371 28.742c1.079-.394 1.833-1.284 2.625-2.074.785-.818 1.471-1.726 2.13-2.673.02-.029.618-.955.899-1.316.02-.034.047-.052.065-.089-1.483-.604-2.925-1.24-4.425-1.626-1.268-.317-2.508-.739-3.812-.765-1.107-.032-2.184-.247-3.337.064-2.562.627-4.596 2.007-6.516 3.481l.02.074c.708 1.06 1.435 2.113 2.268 3.073.002.009.318.412.514.569l.935.941c.375.189 1.164.54 1.164.54.951.541 1.996.689 3.022.786 1.182-.097 3.203-.354 4.448-.985z"/><path d="m34.43 20.181c.597-.021 1.01.063 1.517.098 1.449.165 2.831.646 4.185 1.234.219.126.442.264.644.407 0 0 .455.385.709.583.396.366.743.76 1.063 1.159.098.198.383.633.406.682.541 1.027 1.039 2.093 1.462 3.18.043.064.056.136.083.202-.24.114-.514.171-.779.251-.052.021-.82.245-1.128.383-.849.199-1.747.377-2.606.52-.061.013-1.254.191-1.81.228-.032.007-1.03.084-1.222.063-.269.06-.535.015-.81.03-.57.01-1.806-.086-1.857-.104-.516-.039-1.267-.23-1.505-.324-.084-.024-1.36-.539-1.404-.555-.242-.105-.774-.444-.774-.444-.338-.149-.636-.409-.93-.605-.482-.396-.931-.827-1.311-1.317-.604-.786-1.522-2.566-1.535-2.581 1.163-1.008 2.578-1.686 4.007-2.276.561-.242 1.141-.443 1.721-.644.618-.083 1.279-.236 1.874-.17z"/><path d="m32.042 30.537c1.014 1.327 2.104 2.524 2.395 4.354.095.582.211 1.178.238 1.749.075.634.154 1.308.158 1.923.009.992-.068 1.991-.068 2.983-.482-.145-.958-.346-1.43-.525-.036.019-3.317-1.167-3.317-1.167-1.193-.515-2.409-1.222-3.5-1.985 0 0-1.548-1.14-2.031-1.855-.332-.451-.633-.934-.948-1.408-.043-.06-.304-.588-.326-.824-.17-.72-.31-1.449-.26-2.16-.014-.302-.007-.661.031-.999.156-1.477.521-2.917.978-4.353l.084-.376c2.78.963 6.006 2.363 7.996 4.643z"/><path d="m20.554 25.935c-1.986.743-3.876 1.637-5.788 2.515-.313.193-.652.44-.979.623-.565.617-1.829 1.766-1.829 1.766-.756.739-1.505 1.852-1.507 2.984-.077 1.104.047 2.215.204 3.339.213 1.173.599 2.339.977 3.509.081.399.2.765.278 1.152.114-.019.279-.081.416-.097 0 0 3.095-1.04 4.46-1.808 1.11-.639 2.196-1.334 2.97-2.368.142-.128.406-.478.406-.478 1.043-1.44 1.667-3.244 1.664-4.928 0 0-.011-.537.015-.797-.055-.631-.217-1.273-.279-1.899-.125-.372-.179-.748-.296-1.121-.185-.781-.495-1.589-.712-2.392z"/></g><g fill="#4f5556"><path d="m57.331 14.516c-1.134.985-1.732 2.375-1.732 4.019 0 3.031 2.549 4.573 5.013 6.063 2.174 1.313 4.222 2.553 4.222 4.708 0 1.394-1.283 2.878-3.658 2.878-1.721 0-3.416-.78-4.903-2.253l-.55-.548v3.289l.134.096c1.727 1.248 3.474 1.803 5.661 1.803 3.359 0 5.795-2.358 5.795-5.608 0-1.661-.584-3.057-1.782-4.268-1.032-1.037-2.34-1.778-3.606-2.492-1.978-1.117-3.85-2.171-3.85-4.074 0-1.603 1.465-2.724 3.568-2.724 1.467 0 2.915.543 4.305 1.61l.521.401v-2.965l-.152-.095c-1.397-.872-2.925-1.335-4.423-1.335-1.864.001-3.44.519-4.563 1.495z"/><path d="m129.05 14.516c-1.134.985-1.733 2.375-1.733 4.019 0 3.027 2.547 4.571 5.014 6.063 2.169 1.313 4.221 2.553 4.221 4.708 0 1.394-1.285 2.878-3.66 2.878-1.719 0-3.412-.78-4.899-2.253l-.552-.548v3.289l.135.096c1.729 1.248 3.473 1.803 5.662 1.803 3.357 0 5.795-2.358 5.795-5.608 0-1.661-.584-3.057-1.784-4.268-1.03-1.037-2.339-1.778-3.604-2.492-1.978-1.117-3.85-2.171-3.85-4.074 0-1.603 1.469-2.724 3.568-2.724 1.467 0 2.915.543 4.303 1.61l.521.403v-2.967l-.152-.095c-1.393-.872-2.927-1.335-4.424-1.335-1.863.001-3.439.519-4.561 1.495z"/><path d="m85.916 13.345v9.297h-11.223v-9.297h-2.617v20.901h2.617v-9.299h11.223v9.299h2.619v-20.901z"/><path d="m95.146 13.345h2.619v20.901h-2.619z"/><path d="m143.982 13.345v20.901h11.74v-2.302h-9.117v-6.986h8.52v-2.306h-8.52v-7.002h8.833v-2.306h-11.456z"/><path d="m201.754 13.345v20.901h11.738v-2.302h-9.117v-6.986h8.521v-2.306h-8.521v-7.002h8.836v-2.306h-11.457z"/><path d="m189.725 13.219h-1.871l-8.436 21.027h2.713l2.424-6.287h8.676l2.625 6.288 2.674-.001zm-4.282 12.429 3.277-8.502 3.549 8.502z"/><path d="m176.506 17.361v-2.74c-2.057-.904-4.234-1.55-6.059-1.55-3.475 0-6.133.871-8.186 2.817-2.059 1.958-3.045 4.895-3.045 7.888 0 5.834 3.217 10.752 10.336 10.752 2.66 0 5.258-.67 6.951-1.797l.121-.084v-9.988h-6.699v2.205h4.18v6.326c-1.297.693-2.975 1.044-4.635.953-3.843-.312-7.561-2.549-7.561-8.277 0-5.136 3.023-8.419 8.305-8.419.001 0 3.47.022 6.292 1.914z"/><path d="m119.572 13.345-.006 16.251-12.697-16.251h-2.5v20.902h2.433v-16.716l12.998 16.717h2.204v-20.903z"/></g></g></svg>

<?xml version="1.0" encoding="UTF-8" standalone="no"?>
<!DOCTYPE svg PUBLIC "-//W3C//DTD SVG 1.1//EN" "http://www.w3.org/Graphics/SVG/1.1/DTD/svg11.dtd">
<svg width="100%" height="100%" viewBox="0 0 560 400" version="1.1" xmlns="http://www.w3.org/2000/svg" xmlns:xlink="http://www.w3.org/1999/xlink" xml:space="preserve" xmlns:serif="http://www.serif.com/" style="fill-rule:evenodd;clip-rule:evenodd;stroke-linejoin:round;stroke-miterlimit:1.41421;">
    <g transform="matrix(2.15191,0,0,2.15191,50.2922,155.001)">
        <g>
            <g>
                <path d="M23.08,0.094C23.608,0.802 24.701,2.263 24.729,2.286C24.813,2.426 24.889,2.564 24.995,2.685C25.633,3.99 26.611,5.16 27.037,6.614L27.3,7.441C27.3,7.441 27.366,7.716 27.407,8.038C27.643,8.966 27.418,9.877 27.325,10.789C27.02,12.412 26.076,13.911 25.231,15.317C24.45,16.383 22.729,18.438 22.729,18.438C21.715,17.227 20.622,16.055 19.567,14.891C18.973,13.799 18.365,12.714 17.831,11.575C17.446,10.273 17.109,8.985 17.156,7.695C17.14,7.68 17.198,7.141 17.222,6.918C17.347,6.461 17.432,5.958 17.679,5.569C17.747,5.361 18.017,4.915 18.179,4.729C18.179,4.729 18.672,4.028 18.815,3.856C20.005,2.37 21.57,1.314 22.941,0.015C23.01,-0.039 23.041,0.065 23.08,0.094Z" style="fill:rgb(230,0,0);fill-rule:nonzero;"/>
                <path d="M7.278,7.649C7.647,7.806 8.043,7.86 8.416,7.998C9.453,8.102 10.46,8.384 11.452,8.663C12.068,8.868 13.286,9.493 13.286,9.493C14.868,10.361 15.94,11.699 17.054,12.949C17.996,14.284 18.779,15.744 19.139,17.469C19.225,17.984 19.393,18.529 19.432,19.042C17.718,19.546 15.973,19.817 14.271,19.875C12.904,19.661 11.607,19.16 10.332,18.496C9.082,17.617 8.127,16.561 7.289,15.399C6.173,13.655 5.603,11.443 5.352,9.329C5.312,9.037 5.292,8.771 5.292,8.771C5.292,8.771 5.193,7.895 5.138,7.456C5.14,7.227 5.159,7.107 5.159,7.107C5.159,7.107 5.501,7.182 5.758,7.222C6.148,7.344 7.094,7.619 7.278,7.649Z" style="fill:rgb(230,0,0);fill-rule:nonzero;"/>
                <path d="M35.713,9.089C35.77,9.1 37.474,9.366 38.459,9.654C38.631,9.684 38.723,9.735 38.878,9.761C39.749,10.057 40.617,10.35 41.484,10.666C41.35,11.847 41.136,13.012 40.415,14.039C40.39,14.072 40.363,14.117 40.322,14.173C39.72,15.152 38.783,16.015 37.841,16.659C36.942,17.245 36.057,17.866 35.043,18.282C32.972,19.276 30.509,20.019 28.171,19.641C27.292,19.491 26.369,19.458 25.495,19.265C25.495,19.265 25.889,17.702 26.066,16.92C26.177,16.422 26.591,15.483 26.591,15.483C27.256,14.444 27.469,13.279 28.343,12.307C29.527,11.09 30.736,9.918 32.317,9.307C33.422,8.931 34.631,8.891 35.713,9.089Z" style="fill:rgb(230,0,0);fill-rule:nonzero;"/>
                <path d="M12.371,28.742C13.45,28.348 14.204,27.458 14.996,26.668C15.781,25.85 16.467,24.942 17.126,23.995C17.146,23.966 17.744,23.04 18.025,22.679C18.045,22.645 18.072,22.627 18.09,22.59C16.607,21.986 15.165,21.35 13.665,20.964C12.397,20.647 11.157,20.225 9.853,20.199C8.746,20.167 7.669,19.952 6.516,20.263C3.954,20.89 1.92,22.27 0,23.744L0.02,23.818C0.728,24.878 1.455,25.931 2.288,26.891C2.29,26.9 2.606,27.303 2.802,27.46L3.737,28.401C4.112,28.59 4.901,28.941 4.901,28.941C5.852,29.482 6.897,29.63 7.923,29.727C9.105,29.63 11.126,29.373 12.371,28.742Z" style="fill:rgb(230,0,0);fill-rule:nonzero;"/>
                <path d="M34.43,20.181C35.027,20.16 35.44,20.244 35.947,20.279C37.396,20.444 38.778,20.925 40.132,21.513C40.351,21.639 40.574,21.777 40.776,21.92C40.776,21.92 41.231,22.305 41.485,22.503C41.881,22.869 42.228,23.263 42.548,23.662C42.646,23.86 42.931,24.295 42.954,24.344C43.495,25.371 43.993,26.437 44.416,27.524C44.459,27.588 44.472,27.66 44.499,27.726C44.259,27.84 43.985,27.897 43.72,27.977C43.668,27.998 42.9,28.222 42.592,28.36C41.743,28.559 40.845,28.737 39.986,28.88C39.925,28.893 38.732,29.071 38.176,29.108C38.144,29.115 37.146,29.192 36.954,29.171C36.685,29.231 36.419,29.186 36.144,29.201C35.574,29.211 34.338,29.115 34.287,29.097C33.771,29.058 33.02,28.867 32.782,28.773C32.698,28.749 31.422,28.234 31.378,28.218C31.136,28.113 30.604,27.774 30.604,27.774C30.266,27.625 29.968,27.365 29.674,27.169C29.192,26.773 28.743,26.342 28.363,25.852C27.759,25.066 26.841,23.286 26.828,23.271C27.991,22.263 29.406,21.585 30.835,20.995C31.396,20.753 31.976,20.552 32.556,20.351C33.174,20.268 33.835,20.115 34.43,20.181Z" style="fill:rgb(230,0,0);fill-rule:nonzero;"/>
                <path d="M32.042,30.537C33.056,31.864 34.146,33.061 34.437,34.891C34.532,35.473 34.648,36.069 34.675,36.64C34.75,37.274 34.829,37.948 34.833,38.563C34.842,39.555 34.765,40.554 34.765,41.546C34.283,41.401 33.807,41.2 33.335,41.021C33.299,41.04 30.018,39.854 30.018,39.854C28.825,39.339 27.609,38.632 26.518,37.869C26.518,37.869 24.97,36.729 24.487,36.014C24.155,35.563 23.854,35.08 23.539,34.606C23.496,34.546 23.235,34.018 23.213,33.782C23.043,33.062 22.903,32.333 22.953,31.622C22.939,31.32 22.946,30.961 22.984,30.623C23.14,29.146 23.505,27.706 23.962,26.27L24.046,25.894C26.826,26.857 30.052,28.257 32.042,30.537Z" style="fill:rgb(230,0,0);fill-rule:nonzero;"/>
            </g>
            <path d="M20.554,25.935C18.568,26.678 16.678,27.572 14.766,28.45C14.453,28.643 14.114,28.89 13.787,29.073C13.222,29.69 11.958,30.839 11.958,30.839C11.202,31.578 10.453,32.691 10.451,33.823C10.374,34.927 10.498,36.038 10.655,37.162C10.868,38.335 11.254,39.501 11.632,40.671C11.713,41.07 11.832,41.436 11.91,41.823C12.024,41.804 12.189,41.742 12.326,41.726C12.326,41.726 15.421,40.686 16.786,39.918C17.896,39.279 18.982,38.584 19.756,37.55C19.898,37.422 20.162,37.072 20.162,37.072C21.205,35.632 21.829,33.828 21.826,32.144C21.826,32.144 21.815,31.607 21.841,31.347C21.786,30.716 21.624,30.074 21.562,29.448C21.437,29.076 21.383,28.7 21.266,28.327C21.081,27.546 20.771,26.738 20.554,25.935Z" style="fill:rgb(230,0,0);fill-rule:nonzero;"/>
        </g>
        <g>
            <path d="M57.331,14.516C56.197,15.501 55.599,16.891 55.599,18.535C55.599,21.566 58.148,23.108 60.612,24.598C62.786,25.911 64.834,27.151 64.834,29.306C64.834,30.7 63.551,32.184 61.176,32.184C59.455,32.184 57.76,31.404 56.273,29.931L55.723,29.383L55.723,32.672L55.857,32.768C57.584,34.016 59.331,34.571 61.518,34.571C64.877,34.571 67.313,32.213 67.313,28.963C67.313,27.302 66.729,25.906 65.531,24.695C64.499,23.658 63.191,22.917 61.925,22.203C59.947,21.086 58.075,20.032 58.075,18.129C58.075,16.526 59.54,15.405 61.643,15.405C63.11,15.405 64.558,15.948 65.948,17.015L66.469,17.416L66.469,14.451L66.317,14.356C64.92,13.484 63.392,13.021 61.894,13.021C60.03,13.022 58.454,13.54 57.331,14.516Z" style="fill:rgb(79,85,86);fill-rule:nonzero;"/>
            <path d="M129.05,14.516C127.916,15.501 127.317,16.891 127.317,18.535C127.317,21.562 129.864,23.106 132.331,24.598C134.5,25.911 136.552,27.151 136.552,29.306C136.552,30.7 135.267,32.184 132.892,32.184C131.173,32.184 129.48,31.404 127.993,29.931L127.441,29.383L127.441,32.672L127.576,32.768C129.305,34.016 131.049,34.571 133.238,34.571C136.595,34.571 139.033,32.213 139.033,28.963C139.033,27.302 138.449,25.906 137.249,24.695C136.219,23.658 134.91,22.917 133.645,22.203C131.667,21.086 129.795,20.032 129.795,18.129C129.795,16.526 131.264,15.405 133.363,15.405C134.83,15.405 136.278,15.948 137.666,17.015L138.187,17.418L138.187,14.451L138.035,14.356C136.642,13.484 135.108,13.021 133.611,13.021C131.748,13.022 130.172,13.54 129.05,14.516Z" style="fill:rgb(79,85,86);fill-rule:nonzero;"/>
            <path d="M85.916,13.345L85.916,22.642L74.693,22.642L74.693,13.345L72.076,13.345L72.076,34.246L74.693,34.246L74.693,24.947L85.916,24.947L85.916,34.246L88.535,34.246L88.535,13.345L85.916,13.345Z" style="fill:rgb(79,85,86);fill-rule:nonzero;"/>
            <rect x="95.146" y="13.345" width="2.619" height="20.901" style="fill:rgb(79,85,86);fill-rule:nonzero;"/>
            <path d="M143.982,13.345L143.982,34.246L155.722,34.246L155.722,31.944L146.605,31.944L146.605,24.958L155.125,24.958L155.125,22.652L146.605,22.652L146.605,15.65L155.438,15.65L155.438,13.344L143.982,13.344L143.982,13.345Z" style="fill:rgb(79,85,86);fill-rule:nonzero;"/>
            <path d="M201.754,13.345L201.754,34.246L213.492,34.246L213.492,31.944L204.375,31.944L204.375,24.958L212.896,24.958L212.896,22.652L204.375,22.652L204.375,15.65L213.211,15.65L213.211,13.344L201.754,13.344L201.754,13.345Z" style="fill:rgb(79,85,86);fill-rule:nonzero;"/>
            <path d="M189.725,13.219L187.854,13.219L179.418,34.246L182.131,34.246L184.555,27.959L193.231,27.959L195.856,34.247L198.53,34.246L189.725,13.219ZM185.443,25.648L188.72,17.146L192.269,25.648L185.443,25.648Z" style="fill:rgb(79,85,86);fill-rule:nonzero;"/>
            <path d="M176.506,17.361L176.506,14.621C174.449,13.717 172.272,13.071 170.447,13.071C166.972,13.071 164.314,13.942 162.261,15.888C160.202,17.846 159.216,20.783 159.216,23.776C159.216,29.61 162.433,34.528 169.552,34.528C172.212,34.528 174.81,33.858 176.503,32.731L176.624,32.647L176.624,22.659L169.925,22.659L169.925,24.864L174.105,24.864L174.105,31.19C172.808,31.883 171.13,32.234 169.47,32.143C165.627,31.831 161.909,29.594 161.909,23.866C161.909,18.73 164.932,15.447 170.214,15.447C170.215,15.447 173.684,15.469 176.506,17.361Z" style="fill:rgb(79,85,86);fill-rule:nonzero;"/>
            <path d="M119.572,13.345L119.566,29.596L106.869,13.345L104.369,13.345L104.369,34.247L106.802,34.247L106.802,17.531L119.8,34.248L122.004,34.248L122.004,13.345L119.572,13.345Z" style="fill:rgb(79,85,86);fill-rule:nonzero;"/>
        </g>
    </g>
</svg>
